assets/1. F-P/Light rail/Color/Light.Rail-color.svg

<svg width="100%" height="100%" viewBox="0 0 32 32" fill="none" xmlns="http://www.w3.org/2000/svg">
<path d="M12.8199 16.01H10.8699L14.5099 10.07C14.7499 9.69001 15.0199 9.33001 15.3299 9.01001H17.5199C18.6599 9.01001 19.3399 10.27 18.7399 11.22C18.7299 11.24 18.7099 11.26 18.6999 11.28C17.7699 12.63 17.0599 13.64 17.0599 13.64C16.1499 15.11 14.5499 16.01 12.8199 16.01Z" fill="url(#paint0_linear_18_9413)"/>
<g filter="url(#filter0_i_18_9413)">
<path d="M29.9699 7.88501V28.01H8.13994C7.29994 26.46 7.01994 24.7 7.28994 23.01C7.44994 22 7.79994 21.02 8.34994 20.13L9.64994 18.01C17.7687 18.01 14.9274 7.88501 29.9699 7.88501Z" fill="url(#paint1_linear_18_9413)"/>
</g>
<path d="M29.9699 23.01V28.01H8.13994C7.29994 26.46 7.01994 24.7 7.28994 23.01H29.9699Z" fill="url(#paint2_linear_18_9413)"/>
<path d="M29.9699 23.01V28.01H8.13994C7.29994 26.46 7.01994 24.7 7.28994 23.01H29.9699Z" fill="url(#paint3_radial_18_9413)"/>
<path d="M18.7399 11.22C18.7299 11.24 18.7099 11.26 18.6999 11.28C17.7699 12.63 17.0599 13.64 17.0599 13.64C16.1499 15.11 14.5499 16.01 12.8199 16.01H10.8699L14.5099 10.07C14.7499 9.69001 15.0199 9.33001 15.3299 9.01001H17.5199C18.6599 9.01001 19.3399 10.27 18.7399 11.22Z" fill="url(#paint4_linear_18_9413)"/>
<g filter="url(#filter1_i_18_9413)">
<path d="M29.97 7.01001V9.01001H25.32C24.04 9.01001 22.85 9.66001 22.17 10.74C20.92 12.71 19.06 15.64 19.06 15.64C18.15 17.11 16.55 18.01 14.82 18.01H9.64996L10.87 16.01C13.6185 12.7375 14.1757 11.7159 15.33 9.01001C16.43 7.85001 17.94 7.13001 19.57 7.02001C19.7 7.01001 19.84 7.01001 19.98 7.01001H29.97Z" fill="url(#paint5_radial_18_9413)"/>
</g>
<path d="M19.9799 7.01001C19.8399 7.01001 19.6999 7.01001 19.5699 7.02001C19.6199 7.01001 19.6799 7.01001 19.7299 7.01001H19.9799Z" fill="url(#paint6_linear_18_9413)"/>
<g filter="url(#filter2_i_18_9413)">
<path d="M12.9699 22.01H10.9699C10.4199 22.01 9.96991 21.56 9.96991 21.01C9.96991 20.46 10.4199 20.01 10.9699 20.01H12.9699C13.5199 20.01 13.9699 20.46 13.9699 21.01C13.9699 21.56 13.5299 22.01 12.9699 22.01Z" fill="url(#paint7_radial_18_9413)"/>
</g>
<path d="M29.9699 22.01H21.9699C21.4199 22.01 20.9699 21.56 20.9699 21.01C20.9699 20.46 21.4199 20.01 21.9699 20.01H29.9699V22.01Z" fill="url(#paint8_linear_18_9413)"/>
<path d="M23.2199 18.01H22.7399C21.4999 18.01 20.7399 16.65 21.3899 15.59L23.0999 12.82C23.7999 11.7 25.0199 11.01 26.3499 11.01H29.9799V18.01" fill="url(#paint9_radial_18_9413)"/>
<path d="M23.2199 18.01H22.7399C21.4999 18.01 20.7399 16.65 21.3899 15.59L23.0999 12.82C23.7999 11.7 25.0199 11.01 26.3499 11.01H29.9799V18.01" fill="url(#paint10_linear_18_9413)"/>
<path d="M23.2199 18.01H22.7399C21.4999 18.01 20.7399 16.65 21.3899 15.59L23.0999 12.82C23.7999 11.7 25.0199 11.01 26.3499 11.01H29.9799V18.01" fill="url(#paint11_linear_18_9413)"/>
<path d="M23.2199 18.01H22.7399C21.4999 18.01 20.7399 16.65 21.3899 15.59L23.0999 12.82C23.7999 11.7 25.0199 11.01 26.3499 11.01H29.9799V18.01" fill="url(#paint12_linear_18_9413)"/>
<path d="M29.9699 27.01H1.98993V30.01H29.9699V27.01Z" fill="url(#paint13_linear_18_9413)"/>
<g filter="url(#filter3_f_18_9413)">
<rect x="2.61078" y="27.6586" width="26.8146" height="0.85143" fill="url(#paint14_linear_18_9413)"/>
</g>
<path d="M18.7399 11.22C18.7299 11.24 18.7099 11.26 18.6999 11.28C17.7699 12.63 17.0599 13.64 17.0599 13.64C16.1499 15.11 14.5499 16.01 12.8199 16.01H10.8699L14.5099 10.07C14.7499 9.69001 15.0199 9.33001 15.3299 9.01001H17.5199C18.6599 9.01001 19.3399 10.27 18.7399 11.22Z" fill="url(#paint15_radial_18_9413)"/>
<defs>
<filter id="filter0_i_18_9413" x="7.19067" y="7.88501" width="23.5292" height="20.125" filterUnits="userSpaceOnUse" color-interpolation-filters="sRGB">
<feFlood flood-opacity="0" result="BackgroundImageFix"/>
<feBlend mode="normal" in="SourceGraphic" in2="BackgroundImageFix" result="shape"/>
<feColorMatrix in="SourceAlpha" type="matrix" values="0 0 0 0 0 0 0 0 0 0 0 0 0 0 0 0 0 0 127 0" result="hardAlpha"/>
<feOffset dx="0.75"/>
<feGaussianBlur stdDeviation="0.625"/>
<feComposite in2="hardAlpha" operator="arithmetic" k2="-1" k3="1"/>
<feColorMatrix type="matrix" values="0 0 0 0 0.713726 0 0 0 0 0.694118 0 0 0 0 0.694118 0 0 0 1 0"/>
<feBlend mode="normal" in2="shape" result="effect1_innerShadow_18_9413"/>
</filter>
<filter id="filter1_i_18_9413" x="9.64996" y="7.01001" width="20.92" height="11.1" filterUnits="userSpaceOnUse" color-interpolation-filters="sRGB">
<feFlood flood-opacity="0" result="BackgroundImageFix"/>
<feBlend mode="normal" in="SourceGraphic" in2="BackgroundImageFix" result="shape"/>
<feColorMatrix in="SourceAlpha" type="matrix" values="0 0 0 0 0 0 0 0 0 0 0 0 0 0 0 0 0 0 127 0" result="hardAlpha"/>
<feOffset dx="0.6" dy="0.1"/>
<feGaussianBlur stdDeviation="0.3"/>
<feComposite in2="hardAlpha" operator="arithmetic" k2="-1" k3="1"/>
<feColorMatrix type="matrix" values="0 0 0 0 0.372549 0 0 0 0 0.556863 0 0 0 0 0.780392 0 0 0 1 0"/>
<feBlend mode="normal" in2="shape" result="effect1_innerShadow_18_9413"/>
</filter>
<filter id="filter2_i_18_9413" x="9.96991" y="20.01" width="4" height="2" filterUnits="userSpaceOnUse" color-interpolation-filters="sRGB">
<feFlood flood-opacity="0" result="BackgroundImageFix"/>
<feBlend mode="normal" in="SourceGraphic" in2="BackgroundImageFix" result="shape"/>
<feColorMatrix in="SourceAlpha" type="matrix" values="0 0 0 0 0 0 0 0 0 0 0 0 0 0 0 0 0 0 127 0" result="hardAlpha"/>
<feOffset/>
<feGaussianBlur stdDeviation="0.2"/>
<feComposite in2="hardAlpha" operator="arithmetic" k2="-1" k3="1"/>
<feColorMatrix type="matrix" values="0 0 0 0 0.909804 0 0 0 0 0.180392 0 0 0 0 0.0666667 0 0 0 1 0"/>
<feBlend mode="normal" in2="shape" result="effect1_innerShadow_18_9413"/>
</filter>
<filter id="filter3_f_18_9413" x="1.61078" y="26.6586" width="28.8146" height="2.85144" filterUnits="userSpaceOnUse" color-interpolation-filters="sRGB">
<feFlood flood-opacity="0" result="BackgroundImageFix"/>
<feBlend mode="normal" in="SourceGraphic" in2="BackgroundImageFix" result="shape"/>
<feGaussianBlur stdDeviation="0.5" result="effect1_foregroundBlur_18_9413"/>
</filter>
<linearGradient id="paint0_linear_18_9413" x1="10.8743" y1="12.51" x2="18.9672" y2="12.51" gradientUnits="userSpaceOnUse">
<stop stop-color="#D3D3D3"/>
<stop offset="0.9979" stop-color="#F4F4F4"/>
</linearGradient>
<linearGradient id="paint1_linear_18_9413" x1="15.2516" y1="18.51" x2="29.9743" y2="18.51" gradientUnits="userSpaceOnUse">
<stop stop-color="#DCD0E1"/>
<stop offset="1" stop-color="#EBE0EF"/>
</linearGradient>
<linearGradient id="paint2_linear_18_9413" x1="7.48406" y1="25.51" x2="25.4985" y2="25.51" gradientUnits="userSpaceOnUse">
<stop stop-color="#E1B64A"/>
<stop offset="0.156296" stop-color="#FFD25B"/>
<stop offset="1" stop-color="#FF9A4B"/>
</linearGradient>
<radialGradient id="paint3_radial_18_9413" cx="0" cy="0" r="1" gradientUnits="userSpaceOnUse" gradientTransform="translate(23.4274 17.4475) rotate(146.955) scale(19.3701 13.9413)">
<stop offset="0.883943" stop-color="#8D742E" stop-opacity="0"/>
<stop offset="1" stop-color="#8D742E"/>
</radialGradient>
<linearGradient id="paint4_linear_18_9413" x1="10.8743" y1="12.51" x2="18.9672" y2="12.51" gradientUnits="userSpaceOnUse">
<stop stop-color="#06A5E9"/>
<stop offset="1" stop-color="#1876C4"/>
</linearGradient>
<radialGradient id="paint5_radial_18_9413" cx="0" cy="0" r="1" gradientUnits="userSpaceOnUse" gradientTransform="translate(16.74 18.01) rotate(-51.221) scale(9.38022 7.52556)">
<stop stop-color="#49ADFF"/>
<stop offset="1" stop-color="#4193E9"/>
</radialGradient>
<linearGradient id="paint6_linear_18_9413" x1="19.5742" y1="7.01501" x2="19.9843" y2="7.01501" gradientUnits="userSpaceOnUse">
<stop stop-color="#06A5E9"/>
<stop offset="1" stop-color="#1876C4"/>
</linearGradient>
<radialGradient id="paint7_radial_18_9413" cx="0" cy="0" r="1" gradientUnits="userSpaceOnUse" gradientTransform="translate(10.4928 21.013) scale(3.75568 1.64929)">
<stop stop-color="#FF7853"/>
<stop offset="1" stop-color="#F43A21"/>
</radialGradient>
<linearGradient id="paint8_linear_18_9413" x1="23.1774" y1="21.01" x2="31.1774" y2="21.01" gradientUnits="userSpaceOnUse">
<stop stop-color="#D5C9DA"/>
<stop offset="1" stop-color="#B3A9B7"/>
</linearGradient>
<radialGradient id="paint9_radial_18_9413" cx="0" cy="0" r="1" gradientUnits="userSpaceOnUse" gradientTransform="translate(25.5661 10.6942) rotate(78.2615) scale(5.64436 7.1498)">
<stop stop-color="#0585FD"/>
<stop offset="1" stop-color="#4EF7FF"/>
</radialGradient>
<linearGradient id="paint10_linear_18_9413" x1="27.2253" y1="10.2298" x2="27.2253" y2="12.1803" gradientUnits="userSpaceOnUse">
<stop stop-color="#0482F9"/>
<stop offset="1" stop-color="#0482F9" stop-opacity="0"/>
</linearGradient>
<linearGradient id="paint11_linear_18_9413" x1="22.0794" y1="11.6764" x2="23.7283" y2="12.6943" gradientUnits="userSpaceOnUse">
<stop stop-color="#0482F9"/>
<stop offset="1" stop-color="#0482F9" stop-opacity="0"/>
</linearGradient>
<linearGradient id="paint12_linear_18_9413" x1="25.5661" y1="18.2721" x2="25.5661" y2="17.2543" gradientUnits="userSpaceOnUse">
<stop stop-color="#4BDFFF"/>
<stop offset="1" stop-color="#4BDFFF" stop-opacity="0"/>
</linearGradient>
<linearGradient id="paint13_linear_18_9413" x1="8.82976" y1="30.01" x2="29.9699" y2="30.01" gradientUnits="userSpaceOnUse">
<stop stop-color="#291B3A"/>
<stop offset="1" stop-color="#754089"/>
</linearGradient>
<linearGradient id="paint14_linear_18_9413" x1="2.61078" y1="28.51" x2="29.8085" y2="28.51" gradientUnits="userSpaceOnUse">
<stop stop-color="#3B304B"/>
<stop offset="1" stop-color="#6E479D"/>
</linearGradient>
<radialGradient id="paint15_radial_18_9413" cx="0" cy="0" r="1" gradientUnits="userSpaceOnUse" gradientTransform="translate(11.7087 14.76) rotate(-36.091) scale(8.27576 5.11793)">
<stop stop-color="#51E9FF"/>
<stop offset="1" stop-color="#057EE5"/>
</radialGradient>
</defs>
</svg>

<svg width="100%" height="100%" viewBox="0 0 32 32" xmlns="http://www.w3.org/2000/svg"><path fill="url(#a)" d="M12.82 16.01h-1.95l3.64-5.94c.24-.38.51-.74.82-1.06h2.19c1.14 0 1.82 1.26 1.22 2.21-.01.02-.03.04-.04.06-.93 1.35-1.64 2.36-1.64 2.36a4.99 4.99 0 0 1-4.24 2.37"/><g filter="url(#b)"><path fill="url(#c)" d="M29.97 7.885V28.01H8.14a7.88 7.88 0 0 1-.85-5c.16-1.01.51-1.99 1.06-2.88l1.3-2.12c8.119 0 5.277-10.125 20.32-10.125"/></g><path fill="url(#d)" d="M29.97 23.01v5H8.14a7.88 7.88 0 0 1-.85-5z"/><path fill="url(#e)" d="M29.97 23.01v5H8.14a7.88 7.88 0 0 1-.85-5z"/><path fill="url(#f)" d="M18.74 11.22c-.01.02-.03.04-.04.06-.93 1.35-1.64 2.36-1.64 2.36a4.99 4.99 0 0 1-4.24 2.37h-1.95l3.64-5.94c.24-.38.51-.74.82-1.06h2.19c1.14 0 1.82 1.26 1.22 2.21"/><g filter="url(#g)"><path fill="url(#h)" d="M29.97 7.01v2h-4.65c-1.28 0-2.47.65-3.15 1.73l-3.11 4.9a4.99 4.99 0 0 1-4.24 2.37H9.65l1.22-2c2.749-3.273 3.306-4.294 4.46-7a6.44 6.44 0 0 1 4.24-1.99c.13-.01.27-.01.41-.01z"/></g><path fill="url(#i)" d="M19.98 7.01c-.14 0-.28 0-.41.01.05-.01.11-.01.16-.01z"/><g filter="url(#j)"><path fill="url(#k)" d="M12.97 22.01h-2c-.55 0-1-.45-1-1s.45-1 1-1h2c.55 0 1 .45 1 1s-.44 1-1 1"/></g><path fill="url(#l)" d="M29.97 22.01h-8c-.55 0-1-.45-1-1s.45-1 1-1h8z"/><path fill="url(#m)" d="M23.22 18.01h-.48c-1.24 0-2-1.36-1.35-2.42l1.71-2.77a3.83 3.83 0 0 1 3.25-1.81h3.63v7"/><path fill="url(#n)" d="M23.22 18.01h-.48c-1.24 0-2-1.36-1.35-2.42l1.71-2.77a3.83 3.83 0 0 1 3.25-1.81h3.63v7"/><path fill="url(#o)" d="M23.22 18.01h-.48c-1.24 0-2-1.36-1.35-2.42l1.71-2.77a3.83 3.83 0 0 1 3.25-1.81h3.63v7"/><path fill="url(#p)" d="M23.22 18.01h-.48c-1.24 0-2-1.36-1.35-2.42l1.71-2.77a3.83 3.83 0 0 1 3.25-1.81h3.63v7"/><path fill="url(#q)" d="M29.97 27.01H1.99v3h27.98z"/><g filter="url(#r)"><path fill="url(#s)" d="M2.611 27.659h26.815v.851H2.611z"/></g><path fill="url(#t)" d="M18.74 11.22c-.01.02-.03.04-.04.06-.93 1.35-1.64 2.36-1.64 2.36a4.99 4.99 0 0 1-4.24 2.37h-1.95l3.64-5.94c.24-.38.51-.74.82-1.06h2.19c1.14 0 1.82 1.26 1.22 2.21"/><defs><linearGradient id="a" x1="10.874" x2="18.967" y1="12.51" y2="12.51" gradientUnits="userSpaceOnUse"><stop stop-color="#D3D3D3"/><stop offset=".998" stop-color="#F4F4F4"/></linearGradient><linearGradient id="c" x1="15.252" x2="29.974" y1="18.51" y2="18.51" gradientUnits="userSpaceOnUse"><stop stop-color="#DCD0E1"/><stop offset="1" stop-color="#EBE0EF"/></linearGradient><linearGradient id="d" x1="7.484" x2="25.498" y1="25.51" y2="25.51" gradientUnits="userSpaceOnUse"><stop stop-color="#E1B64A"/><stop offset=".156" stop-color="#FFD25B"/><stop offset="1" stop-color="#FF9A4B"/></linearGradient><linearGradient id="f" x1="10.874" x2="18.967" y1="12.51" y2="12.51" gradientUnits="userSpaceOnUse"><stop stop-color="#06A5E9"/><stop offset="1" stop-color="#1876C4"/></linearGradient><linearGradient id="i" x1="19.574" x2="19.984" y1="7.015" y2="7.015" gradientUnits="userSpaceOnUse"><stop stop-color="#06A5E9"/><stop offset="1" stop-color="#1876C4"/></linearGradient><linearGradient id="l" x1="23.177" x2="31.177" y1="21.01" y2="21.01" gradientUnits="userSpaceOnUse"><stop stop-color="#D5C9DA"/><stop offset="1" stop-color="#B3A9B7"/></linearGradient><linearGradient id="n" x1="27.225" x2="27.225" y1="10.23" y2="12.18" gradientUnits="userSpaceOnUse"><stop stop-color="#0482F9"/><stop offset="1" stop-color="#0482F9" stop-opacity="0"/></linearGradient><linearGradient id="o" x1="22.079" x2="23.728" y1="11.676" y2="12.694" gradientUnits="userSpaceOnUse"><stop stop-color="#0482F9"/><stop offset="1" stop-color="#0482F9" stop-opacity="0"/></linearGradient><linearGradient id="p" x1="25.566" x2="25.566" y1="18.272" y2="17.254" gradientUnits="userSpaceOnUse"><stop stop-color="#4BDFFF"/><stop offset="1" stop-color="#4BDFFF" stop-opacity="0"/></linearGradient><linearGradient id="q" x1="8.83" x2="29.97" y1="30.01" y2="30.01" gradientUnits="userSpaceOnUse"><stop stop-color="#291B3A"/><stop offset="1" stop-color="#754089"/></linearGradient><linearGradient id="s" x1="2.611" x2="29.808" y1="28.51" y2="28.51" gradientUnits="userSpaceOnUse"><stop stop-color="#3B304B"/><stop offset="1" stop-color="#6E479D"/></linearGradient><radialGradient id="e" cx="0" cy="0" r="1" gradientTransform="rotate(146.955 9.126 12.199)scale(19.3701 13.9413)" gradientUnits="userSpaceOnUse"><stop offset=".884" stop-color="#8D742E" stop-opacity="0"/><stop offset="1" stop-color="#8D742E"/></radialGradient><radialGradient id="h" cx="0" cy="0" r="1" gradientTransform="matrix(5.875 -7.31252 5.86668 4.7134 16.74 18.01)" gradientUnits="userSpaceOnUse"><stop stop-color="#49ADFF"/><stop offset="1" stop-color="#4193E9"/></radialGradient><radialGradient id="k" cx="0" cy="0" r="1" gradientTransform="matrix(3.75568 0 0 1.64929 10.493 21.013)" gradientUnits="userSpaceOnUse"><stop stop-color="#FF7853"/><stop offset="1" stop-color="#F43A21"/></radialGradient><radialGradient id="m" cx="0" cy="0" r="1" gradientTransform="matrix(1.14832 5.52632 -7.00027 1.4546 25.566 10.694)" gradientUnits="userSpaceOnUse"><stop stop-color="#0585FD"/><stop offset="1" stop-color="#4EF7FF"/></radialGradient><radialGradient id="t" cx="0" cy="0" r="1" gradientTransform="matrix(6.6875 -4.875 3.01482 4.1357 11.709 14.76)" gradientUnits="userSpaceOnUse"><stop stop-color="#51E9FF"/><stop offset="1" stop-color="#057EE5"/></radialGradient><filter id="b" width="23.529" height="20.125" x="7.191" y="7.885" color-interpolation-filters="sRGB" filterUnits="userSpaceOnUse"><feFlood flood-opacity="0" result="BackgroundImageFix"/><feBlend in="SourceGraphic" in2="BackgroundImageFix" result="shape"/><feColorMatrix in="SourceAlpha" result="hardAlpha" values="0 0 0 0 0 0 0 0 0 0 0 0 0 0 0 0 0 0 127 0"/><feOffset dx=".75"/><feGaussianBlur stdDeviation=".625"/><feComposite in2="hardAlpha" k2="-1" k3="1" operator="arithmetic"/><feColorMatrix values="0 0 0 0 0.713726 0 0 0 0 0.694118 0 0 0 0 0.694118 0 0 0 1 0"/><feBlend in2="shape" result="effect1_innerShadow_18_9413"/></filter><filter id="g" width="20.92" height="11.1" x="9.65" y="7.01" color-interpolation-filters="sRGB" filterUnits="userSpaceOnUse"><feFlood flood-opacity="0" result="BackgroundImageFix"/><feBlend in="SourceGraphic" in2="BackgroundImageFix" result="shape"/><feColorMatrix in="SourceAlpha" result="hardAlpha" values="0 0 0 0 0 0 0 0 0 0 0 0 0 0 0 0 0 0 127 0"/><feOffset dx=".6" dy=".1"/><feGaussianBlur stdDeviation=".3"/><feComposite in2="hardAlpha" k2="-1" k3="1" operator="arithmetic"/><feColorMatrix values="0 0 0 0 0.372549 0 0 0 0 0.556863 0 0 0 0 0.780392 0 0 0 1 0"/><feBlend in2="shape" result="effect1_innerShadow_18_9413"/></filter><filter id="j" width="4" height="2" x="9.97" y="20.01" color-interpolation-filters="sRGB" filterUnits="userSpaceOnUse"><feFlood flood-opacity="0" result="BackgroundImageFix"/><feBlend in="SourceGraphic" in2="BackgroundImageFix" result="shape"/><feColorMatrix in="SourceAlpha" result="hardAlpha" values="0 0 0 0 0 0 0 0 0 0 0 0 0 0 0 0 0 0 127 0"/><feOffset/><feGaussianBlur stdDeviation=".2"/><feComposite in2="hardAlpha" k2="-1" k3="1" operator="arithmetic"/><feColorMatrix values="0 0 0 0 0.909804 0 0 0 0 0.180392 0 0 0 0 0.0666667 0 0 0 1 0"/><feBlend in2="shape" result="effect1_innerShadow_18_9413"/></filter><filter id="r" width="28.815" height="2.851" x="1.611" y="26.659" color-interpolation-filters="sRGB" filterUnits="userSpaceOnUse"><feFlood flood-opacity="0" result="BackgroundImageFix"/><feBlend in="SourceGraphic" in2="BackgroundImageFix" result="shape"/><feGaussianBlur result="effect1_foregroundBlur_18_9413" stdDeviation=".5"/></filter></defs></svg>
